X:556
T:An Caora crom
S:McFarlan MS, 1740-3
M:C|
L:1/8
K:GDor
DG2B AGFE|DG2B cABG|ABcB  AGFE |DG2B ABGA:|
Gg2a fgfd|dg2a bgag|f>gfd c>BAF|DG2B ABGA:|


